app/assets/images/icons/active/critical/chevron-left.svg

<svg width="32" height="232" viewBox="0 0 32 232" xmlns="http://www.w3.org/2000/svg"><title>chevron-left</title><g fill="none"><path d="M20.5 149.5l-12.5-12.5 3.334-3.332 9.166-9.168 3.334 3.334-9.168 9.166 9.168 9.168-3.334 3.332" fill="#206FAC"/><path d="M20.5 109.5l-12.5-12.5 3.334-3.332 9.166-9.168 3.334 3.334-9.168 9.166 9.168 9.168-3.334 3.332" fill="#fff"/><path d="M20.5 69.5l-12.5-12.5 3.334-3.332 9.166-9.168 3.334 3.334-9.168 9.166 9.168 9.168-3.334 3.332" fill="#67737B"/><path d="M20.5 29.5l-12.5-12.5 3.334-3.332 9.166-9.168 3.334 3.334-9.168 9.166 9.168 9.168-3.334 3.332" fill="#3A434E"/></g></svg>

<svg width="32" height="232" viewBox="0 0 32 232" xmlns="http://www.w3.org/2000/svg"><title>chevron-left</title><g fill="none"><path d="M20.5 149.5L8 137l3.334-3.332L20.5 124.5l3.334 3.334L14.666 137l9.168 9.168L20.5 149.5" fill="#206FAC"/><path d="M20.5 109.5L8 97l3.334-3.332L20.5 84.5l3.334 3.334L14.666 97l9.168 9.168L20.5 109.5" fill="#fff"/><path d="M20.5 69.5L8 57l3.334-3.332L20.5 44.5l3.334 3.334L14.666 57l9.168 9.168L20.5 69.5" fill="#67737B"/><path d="M20.5 29.5L8 17l3.334-3.332L20.5 4.5l3.334 3.334L14.666 17l9.168 9.168L20.5 29.5" fill="#3A434E"/></g></svg>
